X:1
T:Title
%%score { ( 1 3 4 ) | ( 2 5 6 ) }
L:1/8
M:4/4
K:G
V:1 treble nm="Grand Piano"
V:3 treble 
V:4 treble 
V:2 treble 
V:5 treble 
V:6 treble 
V:1
 z4 z2[Q:1/4=108] D>C | B,>D G>A B>B c>c | d6 G>G | A6 D>A | [G,B,DG]6 z2 | z z/ D/ G>A B>B c>c | %6
 d6 B>B | A6 e>[G^c] |[M:3/4] [Fd]6 |[M:1/4] D>D |[M:4/4] e6 z2 | c6 z2 | d6 z2 | B6 z2 | %14
 B,>D G>A B>B c>c | d6 G>G | A6 D>A |[M:3/4] [B,DG]6 |] %18
V:2
 z8 | z z/ B,/ B,>D G>G A>A | B6[K:bass] [G,B,D]>[G,B,D] | [D,CD]6 [D,C]>[D,CD] | G,,6 D>C | %5
 B,>B, B,>[K:treble]D G>G A>A | B6 [G,DG]>[G,DG] | [A,DF]6[K:bass] [A,,^CG]>[A,,A,] | %8
[M:3/4] [D,A,]6 |[M:1/4] z2 |[M:4/4][K:treble] c6[K:bass][K:treble] z2 | A6[K:bass] z2 | B6 z2 | %13
 G6[K:bass] z2 | z z/[K:treble] B,/ B,>D G>G A>A | B6[K:bass] [G,B,D]>[G,B,D] | %16
 [D,CD]6 [D,C]>[D,CD] |[M:3/4] [G,,G,]6 |] %18
V:3
 x8 | x8 | x8 | x8 | x8 | x8 | x8 | x8 |[M:3/4] x6 |[M:1/4] x2 |[M:4/4] z2 D>D z z/ d/ c>B | %11
 z D D>D D2 D>D | z2 D>D z z/ c/ B>A | z D D>D D2 D>C | x8 | x8 | x8 |[M:3/4] x6 |] %18
V:4
 x8 | x8 | x8 | x8 | x8 | x8 | x8 | x8 |[M:3/4] x6 |[M:1/4] x2 |[M:4/4] z4 D2 z2 | x8 | z4 D2 z2 | %13
 x8 | x8 | x8 | x8 |[M:3/4] x6 |] %18
V:5
 x8 | x8 | x6[K:bass] x2 | x8 | x8 | x7/2[K:treble] x9/2 | x8 | x6[K:bass] x2 |[M:3/4] x6 | %9
[M:1/4] x2 |[M:4/4][K:treble] z2[K:bass] D,>D, z z/[K:treble] B/ A>^G | z[K:bass] D, D,>D, D,2 z2 | %12
 z2 G,>G, z z/ A/ G>F | z[K:bass] G, G,>G, G,2 z2 | x3/2[K:treble] x13/2 | x6[K:bass] x2 | x8 | %17
[M:3/4] x6 |] %18
V:6
 x8 | x8 | x6[K:bass] x2 | x8 | x8 | x7/2[K:treble] x9/2 | x8 | x6[K:bass] x2 |[M:3/4] x6 | %9
[M:1/4] x2 |[M:4/4][K:treble] z4[K:bass] D,2[K:treble] z2 | x[K:bass] x7 | z4 G,2 z2 | %13
 x[K:bass] x7 | x3/2[K:treble] x13/2 | x6[K:bass] x2 | x8 |[M:3/4] x6 |] %18

